X: 23
T: Morpeth Rant
C: Traditional
O: England
R: reel
M: 4/4
L: 1/8
K: Dmaj
|:(3ABc|"D" d2AG FDFA|"G" BGBd "A" cAce|"D" f2fd gfed|"A" c2e2 egfe|
"D" d2AG FDFA|"G" BGBd "A" cAce|"D" f2fd "G" gfed|"D" A2d2 d2:|
|:A2|"D" dfaf dfaf|"Em" gfef g2ef|"A7" gfed cdeg|"D" fefg f2f2|
"Bm" dfaf dfaf|"Em" gfef g2ef|"A7" gfed cdeg|"D" f2d2 d2:|

